images/gate.svg

<?xml version="1.0" encoding="UTF-8" standalone="no"?>
<svg xmlns:dc="http://purl.org/dc/elements/1.1/" xmlns:cc="http://creativecommons.org/ns#" xmlns:rdf="http://www.w3.org/1999/02/22-rdf-syntax-ns#" xmlns:svg="http://www.w3.org/2000/svg" xmlns="http://www.w3.org/2000/svg" xmlns:sodipodi="http://sodipodi.sourceforge.net/DTD/sodipodi-0.dtd" xmlns:inkscape="http://www.inkscape.org/namespaces/inkscape" version="1.1" width="6" height="5" id="svg943" sodipodi:docname="gate.svg" inkscape:version="0.92.4 (5da689c313, 2019-01-14)">
  <metadata id="metadata949">
    <rdf:RDF>
      <cc:Work rdf:about="">
        <dc:format>image/svg+xml</dc:format>
        <dc:type rdf:resource="http://purl.org/dc/dcmitype/StillImage" />
        <dc:title></dc:title>
      </cc:Work>
    </rdf:RDF>
  </metadata>
  <defs id="defs947" />
  <sodipodi:namedview pagecolor="#ffffff" bordercolor="#666666" borderopacity="1" objecttolerance="10" gridtolerance="10" guidetolerance="10" inkscape:pageopacity="0" inkscape:pageshadow="2" inkscape:window-width="1881" inkscape:window-height="1051" id="namedview945" showgrid="false" inkscape:pagecheckerboard="true" inkscape:zoom="47.2" inkscape:cx="3" inkscape:cy="2.5" inkscape:window-x="0" inkscape:window-y="0" inkscape:window-maximized="1" inkscape:current-layer="svg943" />
  <path id="path1495" d="M 4 0 L 3.4003906 1 L 0 1 L 0 2 L 2.7988281 2 L 2.1992188 3 L 0 3 L 0 4 L 1.5996094 4 L 1 5 L 2 5 L 2.5996094 4 L 6 4 L 6 3 L 3.1992188 3 L 3.7988281 2 L 6 2 L 6 1 L 4.4003906 1 L 5 0 L 4 0 z " style="fill:none;stroke:#fbfbfb;stroke-opacity:1;opacity:0.5;stroke-width:3;stroke-miterlimit:4;stroke-dasharray:none;stroke-linejoin:round;stroke-linecap:round" />
  <path d="M 4 0 L 3.4003906 1 L 0 1 L 0 2 L 2.7988281 2 L 2.1992188 3 L 0 3 L 0 4 L 1.5996094 4 L 1 5 L 2 5 L 2.5996094 4 L 6 4 L 6 3 L 3.1992188 3 L 3.7988281 2 L 6 2 L 6 1 L 4.4003906 1 L 5 0 L 4 0 z " id="path937" />
</svg>

<svg xmlns="http://www.w3.org/2000/svg" width="6" height="5">
    <path d="M4 0l-.6 1H0v1h2.799l-.6 1H0v1h1.6L1 5h1l.6-1H6V3H3.2l.599-1H6V1H4.4L5 0H4z" fill="none" stroke="#fbfbfb" opacity=".5" stroke-width="3" stroke-linejoin="round" stroke-linecap="round"/>
    <path d="M4 0l-.6 1H0v1h2.799l-.6 1H0v1h1.6L1 5h1l.6-1H6V3H3.2l.599-1H6V1H4.4L5 0H4z"/>
</svg>
